svg/fluentui-system-icons/ic_fluent_caret_down_right_12_regular.svg

<svg width="12" height="12" viewBox="0 0 12 12" fill="none" xmlns="http://www.w3.org/2000/svg">
<path d="M7.29775 3.25584C7.92771 2.62587 9.00486 3.07203 9.00486 3.96294V7.50583C9.00486 8.33426 8.33329 9.00583 7.50486 9.00583H3.96197C3.07106 9.00583 2.62489 7.92869 3.25486 7.29873L7.29775 3.25584ZM8.00486 3.96294L3.96197 8.00583H7.50486C7.781 8.00583 8.00486 7.78198 8.00486 7.50583L8.00486 3.96294Z" fill="#212121"/>
</svg>

<svg xmlns="http://www.w3.org/2000/svg" width="12" height="12"><path d="M7.298 3.256c.63-.63 1.707-.184 1.707.707v3.543a1.5 1.5 0 0 1-1.5 1.5H3.962c-.89 0-1.337-1.077-.707-1.707l4.043-4.043Zm.707.707L3.962 8.006h3.543a.5.5 0 0 0 .5-.5V3.963Z"/></svg>
